X: 27603
T: Monymusk
R: reel
M: 4/4
K: Dmajor
|AD (3FED ADBD|A2 (3FED EFGB|AD (3FED A2 (3ABc|dBAG F>D D2|
A2 (3FED ADBD|AD (3FED EFGB|A2 (3FED A2 Bc|dBAG FD D2|
dA ~A2 D2 ~A2|DAFA BE E2|DA ~A2 DAFA|GBAG F>D D2|
dA ~A2 D2 ~A2|DAFA BEEz|(3cdc (3BcB (3ABA G3 z|FGAc dedB|

